X: 6
T: Jingle Bells
C: Christmas
M: 4/4
K: A
L: 1/4
"A"(vE c) (B A) | E3 (uE/vE/) | (E c) (B A) | "D" F3 z |
w: Dash-ing through the snow in a one-horse op-en sleigh
(vF d) (c B) | "E7" G4 | !4!e e (d B) | "A" vc3 z |
w: O'er the fields we go, Laugh-ing all the way.
(vE c) (B A) | E3 z | (uE c) "A7" (B A) | "D" uF3 uF |
w: Bells on bob-tail ring, mak-ing spir-its bright.  What
(F d) (c B) | "E7" e e e e | (f e) (d B) | "A" vA2 ue2 |
w: fun it is to ride and sing a sleigh-ing song to-night. Oh,
"A" vc c c2 | uc c c2 | c e (vA > B) | "A7" c4 |
w: Jin-gle bells, jin-gle bells, jin-gle all the way,
"D" vd d (vd > vd) | "A" d c c c/c/ | "B7" c B B c | "E7" B2 e2 |
w: Oh, what fun it is to ride in a one-horse op-en sleigh! -
"A" vc c c2 | uc c c2 | c e (A > B) | "A7" c4 |
w: Jin-gle bells, jin-gle bells, jin-gle all the way,
"D" vd d (vd > vd) | "A" d c c c/c/ | "E7" e e d B | "A" A3 z |
w: Oh, what fun it is to ride in a one-horse op-en sleigh!

